X:1
T:THE FORTRESS
M:4/4
Q:1/4=120
K:E
c15/2c/2|c5CEF|G2G4GG|d5=cGd|c6cd|e5dcB|B2A4GF|
G3F/2E/2D2E2|C7/2||

